/* XPM */
static const char * RenderModeVoxel_xpm[] = {
"21 21 4 1",
" 	c None",
"+	c #000000",
".	c #0000E7",
"@	c #1818FF",
"                     ",
"                     ",
"  +++++++++++++++++  ",
"  +.......+@@@@@@@+  ",
"  +.......+@@@@@@@+  ",
"  +.......+@@@@@@@+  ",
"  +.......+@@@@@@@+  ",
"  +.......+@@@@@@@+  ",
"  +.......+@@@@@@@+  ",
"  +.......+@@@@@@@+  ",
"  +++++++++++++++++  ",
"  +@@@@@@@+.......+  ",
"  +@@@@@@@+.......+  ",
"  +@@@@@@@+.......+  ",
"  +@@@@@@@+.......+  ",
"  +@@@@@@@+.......+  ",
"  +@@@@@@@+.......+  ",
"  +@@@@@@@+.......+  ",
"  +++++++++++++++++  ",
"                     ",
"                     "};
