/* XPM */
static const char * RenderModeEdges_xpm[] = {
"21 21 3 1",
" 	c None",
"+	c #000000",
".	c #1818FF",
"                     ",
"                     ",
"  +++++++++++++++++  ",
"  +...............+  ",
"  +...............+  ",
"  +...............+  ",
"  +...............+  ",
"  +...............+  ",
"  +...............+  ",
"  +...............+  ",
"  +...............+  ",
"  +...............+  ",
"  +...............+  ",
"  +...............+  ",
"  +...............+  ",
"  +...............+  ",
"  +...............+  ",
"  +...............+  ",
"  +++++++++++++++++  ",
"                     ",
"                     "};
