/* XPM */
static const char * RenderModeSTL_xpm[] = {
"21 21 3 1",
" 	c None",
"o	c #000080",
".	c #1818FF",
"                     ",
"                     ",
"  oooooooo oooooooo  ",
"  o......o o......o  ",
"  o......o o......o  ",
"  o......o o......o  ",
"  o......o o......o  ",
"  o......o o......o  ",
"  o......o o......o  ",
"  oooooooo oooooooo  ",
"                     ",
"  oooooooo oooooooo  ",
"  o......o o......o  ",
"  o......o o......o  ",
"  o......o o......o  ",
"  o......o o......o  ",
"  o......o o......o  ",
"  o......o o......o  ",
"  oooooooo oooooooo  ",
"                     ",
"                     "};
